src/assets/chevron_r.svg

<svg width="8" height="12" viewBox="0 0 8 12" fill="none" xmlns="http://www.w3.org/2000/svg">
<path d="M1.18943 0.329809C0.97824 0.541259 0.859619 0.827888 0.859619 1.12674C0.859619 1.42559 0.97824 1.71222 1.18943 1.92367L5.27933 6.01357L1.18943 10.1035C0.990225 10.3173 0.881778 10.6 0.886933 10.8922C0.892088 11.1843 1.01044 11.4631 1.21706 11.6697C1.42368 11.8763 1.70243 11.9947 1.99459 11.9998C2.28675 12.005 2.56951 11.8965 2.78329 11.6973L7.67012 6.8105C7.8813 6.59905 7.99993 6.31242 7.99993 6.01357C7.99993 5.71472 7.8813 5.42809 7.67012 5.21664L2.78329 0.329809C2.57184 0.118622 2.28521 0 1.98636 0C1.68751 0 1.40088 0.118622 1.18943 0.329809Z" fill="currentColor"/>
</svg>

<svg width="8" height="12" viewBox="0 0 8 12" fill="none" xmlns="http://www.w3.org/2000/svg">
  <path d="M1.19 0.33c-0.21 0.21-0.33 0.5-0.33 0.8s0.12 0.59 0.33 0.8l4.09 4.09-4.09 4.09c-0.2 0.21-0.32 0.5-0.32 0.8s0.12 0.59 0.33 0.8c0.21 0.21 0.5 0.33 0.8 0.33s0.59-0.12 0.8-0.33l5.87-5.88c0.21-0.21 0.33-0.5 0.33-0.8s-0.12-0.59-0.33-0.8L2.8 0.33C2.59 0.12 2.31 0 2.01 0c-0.3 0-0.59 0.12-0.82 0.33z" fill="currentColor"/>
</svg>
